gtk/icons/scalable/actions/gesture-pinch-symbolic.svg

<?xml version="1.0" encoding="UTF-8" standalone="no"?>
<svg
   width="64"
   height="64"
   version="1.1"
   id="svg1"
   sodipodi:docname="gesture-pinch-symbolic.svg"
   inkscape:version="1.4.2 (ebf0e940d0, 2025-05-08)"
   xmlns:inkscape="http://www.inkscape.org/namespaces/inkscape"
   xmlns:sodipodi="http://sodipodi.sourceforge.net/DTD/sodipodi-0.dtd"
   xmlns="http://www.w3.org/2000/svg"
   xmlns:svg="http://www.w3.org/2000/svg">
  <defs
     id="defs1">
    <inkscape:path-effect
       effect="fillet_chamfer"
       id="path-effect1"
       is_visible="true"
       lpeversion="1"
       nodesatellites_param="F,0,1,1,0,9,0,1 @ F,0,0,1,0,9,0,1 @ F,0,0,1,0,3,0,1 @ F,0,0,1,0,3,0,1 @ F,0,0,1,0,1.5374369,0,1 @ F,0,0,1,0,1.5374369,0,1 @ F,0,0,1,0,3,0,1 @ F,0,0,1,0,3,0,1 @ F,0,0,1,0,1.5374369,0,1 @ F,0,0,1,0,1.5374369,0,1 @ F,0,0,1,0,3,0,1 @ F,0,0,1,0,3,0,1 @ F,0,0,1,0,1.5374369,0,1 @ F,0,0,1,0,1.5374369,0,1 @ F,0,0,1,0,6.3235822,0,1 @ F,0,0,1,0,3.1590159,0,1 @ F,0,0,1,0,3.1590159,0,1 @ F,0,0,1,0,2.2294816,0,1 @ F,0,0,1,0,2.2294816,0,1 @ F,0,0,1,0,2.2294816,0,1 @ F,0,0,1,0,3.2394388,0,1 @ F,0,0,1,0,3.2394388,0,1"
       radius="0"
       unit="px"
       method="auto"
       mode="F"
       chamfer_steps="1"
       flexible="false"
       use_knot_distance="true"
       apply_no_radius="true"
       apply_with_radius="true"
       only_selected="false"
       hide_knots="false" />
    <inkscape:path-effect
       effect="fillet_chamfer"
       id="path-effect3"
       is_visible="true"
       lpeversion="1"
       nodesatellites_param="F,0,0,1,0,0,0,1 @ F,0,0,1,0,0,0,1 @ F,0,0,1,0,3,0,1 @ F,0,0,1,0,3,0,1 @ F,0,1,1,0,1.53125,0,1 @ F,0,1,1,0,1.53125,0,1 @ F,0,0,1,0,3,0,1 @ F,0,0,1,0,3,0,1 @ F,0,1,1,0,1.53125,0,1 @ F,0,1,1,0,1.53125,0,1 @ F,0,0,1,0,3,0,1 @ F,0,0,1,0,3,0,1 @ F,0,0,1,0,1.53125,0,1 @ F,0,1,1,0,1.53125,0,1 @ F,0,0,1,0,5,0,1 @ F,0,0,1,0,3,0,1 @ F,0,0,1,0,3,0,1 @ F,0,0,1,0,2,0,1 @ F,0,0,1,0,2.2294816,0,1 @ F,0,0,1,0,2.2294816,0,1 @ F,0,0,1,0,3,0,1 @ F,0,0,1,0,3,0,1"
       radius="0"
       unit="px"
       method="auto"
       mode="F"
       chamfer_steps="1"
       flexible="false"
       use_knot_distance="true"
       apply_no_radius="true"
       apply_with_radius="true"
       only_selected="false"
       hide_knots="false" />
  </defs>
  <sodipodi:namedview
     id="namedview1"
     pagecolor="#ffffff"
     bordercolor="#000000"
     borderopacity="0.25"
     inkscape:showpageshadow="2"
     inkscape:pageopacity="0.0"
     inkscape:pagecheckerboard="0"
     inkscape:deskcolor="#d1d1d1"
     showgrid="true"
     inkscape:zoom="8"
     inkscape:cx="16.5625"
     inkscape:cy="46.875"
     inkscape:window-width="2106"
     inkscape:window-height="1245"
     inkscape:window-x="26"
     inkscape:window-y="23"
     inkscape:window-maximized="0"
     inkscape:current-layer="svg1">
    <inkscape:grid
       id="grid1"
       units="px"
       originx="0"
       originy="0"
       spacingx="1"
       spacingy="1"
       empcolor="#0099e5"
       empopacity="0.30196078"
       color="#0099e5"
       opacity="0.14901961"
       empspacing="5"
       enabled="true"
       visible="true" />
  </sodipodi:namedview>
  <path
     style="fill:none;stroke:#241f31;stroke-width:2;stroke-linecap:round;paint-order:stroke markers fill"
     d="m 33,59 19,0 a 9,9 135 0 0 9,-9 V 29 a 3,3 45 0 0 -3,-3 3,3 135 0 0 -3,3 v 6.462563 A 1.5374369,1.5374369 135 0 1 53.462563,37 1.5004671,1.5004671 46.429687 0 1 52,35.462563 V 23 a 3,3 45 0 0 -3,-3 3,3 135 0 0 -3,3 V 35.462563 A 1.5374369,1.5374369 135 0 1 44.462563,37 1.5004671,1.5004671 46.429687 0 1 43,35.462563 V 20 a 3,3 45 0 0 -3,-3 3,3 135 0 0 -3,3 V 35.462563 A 1.5374369,1.5374369 135 0 1 35.462563,37 1.5004671,1.5004671 46.429687 0 1 34,35.462563 v -3.138981 a 8.9377349,8.9377349 54.720017 0 0 -5.963077,-8.428197 l -8.058002,-2.844001 a 3.1040807,3.1040807 153.93749 0 0 -3.97789,1.945522 l -0.0021,0.0062 a 3.3058693,3.3058693 64.73623 0 0 1.949485,4.130927 l 7.970669,3.065642 A 3.2461918,3.2461918 55.518756 0 1 28,33.229482 v 7.541036 a 3.937689,3.937689 119.51812 0 1 -1.911765,3.376541 l -1.17647,0.705882 a 2.6399889,2.6399889 9.2174744 0 1 -3.362692,-0.54569 L 13.108199,34.459565 A 3.351111,3.351111 5.3694486 0 0 8.4704233,34.023661 3.2362082,3.2362082 95.975968 0 0 7.9964929,38.551074 L 18.453226,51.912455 A 18.471977,18.471977 25.976479 0 0 33,59 Z"
     id="path2"
     sodipodi:nodetypes="ccccccccccccccccccccccc"
     class="foreground-stroke transparent-fill"
     inkscape:path-effect="#path-effect1"
     inkscape:original-d="M 24,59 H 61 V 26 H 55 V 37 H 52 V 20 H 46 V 37 H 43 V 17 H 37 V 37 H 34 V 26 l -17,-6 -2,6 13,5 V 43 L 23,46 11,32 6,36 Z" />
  <path
     style="fill:none;stroke:#241f31;stroke-width:4;stroke-linecap:round;stroke-dasharray:none;paint-order:stroke markers fill"
     id="path3"
     sodipodi:type="arc"
     sodipodi:cx="10"
     sodipodi:cy="36"
     sodipodi:rx="8"
     sodipodi:ry="8"
     sodipodi:start="2.0204855"
     sodipodi:end="4.9741884"
     sodipodi:open="true"
     sodipodi:arc-type="arc"
     d="M 6.522515,43.204658 A 8,8 0 0 1 2.5008998,33.213695 8,8 0 0 1 12.070553,28.272593"
     class="foreground-stroke transparent-fill" />
  <path
     style="fill:none;stroke:#241f31;stroke-width:4;stroke-linecap:round;stroke-dasharray:none;paint-order:stroke markers fill"
     id="circle3"
     sodipodi:type="arc"
     sodipodi:cx="19"
     sodipodi:cy="24"
     sodipodi:rx="8"
     sodipodi:ry="8"
     sodipodi:start="2.5823821"
     sodipodi:end="5.5906835"
     sodipodi:open="true"
     sodipodi:arc-type="arc"
     d="m 12.218606,28.244137 a 8,8 0 0 1 2.095063,-10.727832 8,8 0 0 1 10.84354,1.375977"
     class="foreground-stroke transparent-fill" />
</svg>

<svg width='64' height='64'
     xmlns:gpa='https://www.gtk.org/grappa'
     gpa:version='1'
     gpa:state='0'>
  <path d='M 33 59 L 52 59 C 56.970562 59, 61 54.970562, 61 50 L 61 29 C 61 27.3431454, 59.6568527 26, 58 26 C 56.3431473 26, 55 27.3431454, 55 29 L 55 35.4625626 C 55 36.3116646, 54.3116646 37, 53.4625626 37 C 52.6341362 36.9793243, 51.9793243 36.2909889, 52 35.4625626 L 52 23 C 52 21.3431454, 50.6568527 20, 49 20 C 47.3431473 20, 46 21.3431454, 46 23 L 46 35.4625626 C 46 36.3116646, 45.3116646 37, 44.4625626 37 C 43.6341362 36.9793243, 42.9793243 36.2909889, 43 35.4625626 L 43 20 C 43 18.3431454, 41.6568527 17, 40 17 C 38.3431473 17, 37 18.3431454, 37 20 L 37 35.4625626 C 37 36.3116646, 36.3116646 37, 35.4625626 37 C 34.6341362 36.9793243, 33.9793243 36.2909889, 34 35.4625626 L 34 32.3235817 C 34 28.5341358, 31.6103325 25.1565895, 28.0369225 23.8953857 L 19.9789219 21.051384 C 19.1937008 20.7742481, 18.3300591 20.8242149, 17.5820389 21.1900597 C 16.8340187 21.5559044, 16.2643528 22.2069454, 16.0010319 22.9969063 L 15.9989309 23.0031052 C 15.4400253 24.6798191, 16.2988091 26.4995689, 17.9484158 27.1340332 L 25.9190845 30.1996746 C 27.1727486 30.6818352, 27.9999886 31.8862934, 28 33.2294807 L 28 40.7705193 C 28 42.1536827, 27.2742901 43.4354286, 26.0882359 44.1470604 L 24.9117641 44.8529396 C 23.8077621 45.5153427, 22.3869514 45.2847748, 21.5490723 44.307251 L 13.1081991 34.4595642 C 11.9324942 33.0879097, 9.88112164 32.8951035, 8.4704237 34.0236626 C 7.09837723 35.1478882, 6.88700724 37.1670837, 7.99649286 38.551075 L 18.4532261 51.9124565 C 21.9543476 56.3861122, 27.3192024 59, 33 59 Z'
        id='path0'
        stroke-width='2'
        stroke-linecap='round'
        stroke-linejoin='round'
        stroke='rgb(0,0,0)'
        fill-rule='winding'
        fill='rgb(0,0,0)'
        class='foreground-stroke foreground-fill'/>
  <path d='M 6.52251482 43.2046585 C 2.80531597 41.4104729, 1.0633229 37.0828094, 2.50089979 33.2136955 C 3.93847609 29.3445797, 8.08364487 27.2043037, 12.0705528 28.2725925'
        id='path1'
        stroke-width='2'
        stroke-linecap='round'
        stroke-linejoin='round'
        stroke='rgb(0,0,0)'
        fill='none'
        class='foreground-stroke transparent-fill'/>
  <path d='M 12.218606 28.2441368 C 9.9843483 24.674181, 10.9004326 19.9833488, 14.3136692 17.5163059 C 17.7269058 15.0492611, 22.4683323 15.650918, 25.1572094 18.8922825'
        id='path2'
        stroke-width='2'
        stroke-linecap='round'
        stroke-linejoin='round'
        stroke='rgb(0,0,0)'
        fill='none'
        class='foreground-stroke transparent-fill'/>
</svg>
